X: 32252
T: Pibroch Of Donald Dhu
R: jig
M: 6/8
K: Gmajor
|:d>BB e>fg|d>BB B>AG|d>BB e>fg|d<BG A2 G|
d>BB e>fg|d>BB B2 G|A2 B c>de|dBG A2 G:|
|:d>BB e>cc|d>BB B>AG|d>BB e>cc|d<BG A2 G|
d>BB e>cc|d>BB B2 G|AA/A/B c>de|dBG A2 G:|
|:d2 G e2 G|d2 G B>AG|d2 G eGe|d<BG A2 G|
d/e/d G e/f/e G|d/e/d G B>AG|A2 B c>de|dBG A2 G:|
|:g>dd g>ee|g>dd B>AG|g>dd g>ee|d<BG A2 G|
Gd/e/d ge/f/e|gd/d/d B2 G|AA/A/B c>de|dBG A2 G:|

